X:1
T:All the Day
T:James Milton Black
T:All the Day
T:Public Domain
T:Public Domain
C:James Milton Black
Z:Public Domain
%%score ( 1 2 ) ( 3 4 )
L:1/8
M:4/4
K:F
V:1 treble 
V:2 treble 
V:3 bass 
V:4 bass 
V:1
 [CF]3 [CG] [FA][Fd][Fc][FA] | [DG]4 D4 | [CE]3 [CF] [EG][Ec][EB][EG] | [FA]8 | %4
w: 1.~All the day my heart is|sing- ing,|a throb of care I know,|For|
w: 2.~Thro’ the night my heart keeps|sing- ing,|tered in His sec- ret place,|Mid-|
w: 3.~When I reach that land of|prom- ise,|er strains my lips shall frame,|But|
 [CF]3 [CG] [FA][Fd][Fc][FA] | [DG]4 D4 | [CE]3 [CF] [EG][Ec][EB][EG] | F8 || %8
w: the Mas- ter’s feet have trod-|den Ev-|path He bids me go. *||
w: night is as bright as noon-|day, By|glo- ry of His face. *||
w: the theme will still be Je-|sus, Glo-|glo- ry! to His Name! *||
"^Refrain" [Fc]3 [Fc] [Fc][FA][FG][FA] | (F4 A2) z2 | [FA]3 [FA] [Fd][Fc][EB][FA] | [EG]8 | %12
w: ||||
w: ||||
w: ||||
 [Fc]3 [Fd] [Fc][FA][EG][_EF] | [Dd]6 [Fd][Fd] | [Fc]2 [FA]2 [EG]3 [CF] | [CF]8 |] %16
w: ||||
w: ||||
w: ||||
V:2
 x8 | x4 D4 | x8 | x8 | x8 | x4 D4 | x8 | F8 || x8 | F6 x2 | x8 | x8 | x8 | x8 | x8 | x8 |] %16
w: |Not||||ery|||||||||||
w: |Shel-||||the|||||||||||
w: |Sweet-||||ry!|||||||||||
V:3
 [F,A,]3 [F,B,] [F,C][F,B,][F,A,][F,C] | [B,,B,]4 [B,,B,]4 | %2
w: ~ ~ ~ ~ ~ ~|~ ~|
 [C,B,]3 [C,A,] [C,G,][C,G,][C,C][C,C] | [F,C]8 | [F,A,]3 [F,B,] [F,C][F,B,][F,A,][F,C] | %5
w: ~ ~ ~ ~ ~ ~|~|~ ~ ~ ~ ~ ~|
 [B,,B,]4 [B,,B,]4 | [C,B,]3 [C,A,] [C,G,][C,G,][C,C][C,B,] | [F,A,]8 || %8
w: ~ ~|~ ~ ~ ~ ~ ~|~|
 [F,A,]3 [F,A,] [F,A,][F,C][F,B,][F,C] | (A,4 C2) z2 | [F,C]3 [F,C] B,[A,C][G,C][F,C] | [C,C]8 | %12
w: In the Lord is all my|joy, *|èd Sav- ior, Friend di- vine!|the|
 [F,A,]3 [F,B,] [F,A,][F,C][F,B,][F,A,] | [B,,F,]6 [=B,,^G,][B,,G,] | %14
w: songs my heart has known, Since|this Je- sus|
 [C,A,]2 [C,C]2 [C,B,]3 [F,A,] | [F,A,]8 |] %16
w: has been mine. *||
V:4
 x8 | x8 | x8 | x8 | x8 | x8 | x8 | x8 || x8 | F,6 x2 | x4 B, x3 | x8 | x8 | x8 | x8 | x8 |] %16
w: |||||||||Bless-|Glad||||||

